Newaita/actions/22/zoom-previous.svg

<?xml version="1.0" encoding="UTF-8"?>
<svg xmlns="http://www.w3.org/2000/svg" xmlns:xlink="http://www.w3.org/1999/xlink" width="22pt" height="22pt" viewBox="0 0 22 22" version="1.1">
<g id="surface1">
<path style=" stroke:none;fill-rule:nonzero;fill:rgb(47.058824%,56.470591%,61.176473%);fill-opacity:1;" d="M 2.273438 1.082031 C 1.519531 1.082031 0.910156 1.691406 0.910156 2.445312 L 0.910156 4.71875 L 2.273438 4.71875 L 2.273438 3.355469 C 2.273438 2.851562 2.679688 2.445312 3.183594 2.445312 L 4.546875 2.445312 L 4.546875 1.082031 Z M 17.28125 1.082031 L 17.28125 2.445312 L 18.648438 2.445312 C 19.152344 2.445312 19.554688 2.851562 19.554688 3.355469 L 19.554688 4.71875 L 20.921875 4.71875 L 20.921875 2.445312 C 20.921875 1.691406 20.3125 1.082031 19.554688 1.082031 Z M 0.910156 17.453125 L 0.910156 19.726562 C 0.910156 20.484375 1.519531 21.09375 2.273438 21.09375 L 4.546875 21.09375 L 4.546875 19.726562 L 3.183594 19.726562 C 2.679688 19.726562 2.273438 19.324219 2.273438 18.820312 L 2.273438 17.453125 Z M 19.554688 17.453125 L 19.554688 18.820312 C 19.554688 19.324219 19.152344 19.726562 18.648438 19.726562 L 17.28125 19.726562 L 17.28125 21.09375 L 19.554688 21.09375 C 20.3125 21.09375 20.921875 20.484375 20.921875 19.726562 L 20.921875 17.453125 Z M 19.554688 17.453125 "/>
<path style=" stroke:none;fill-rule:evenodd;fill:rgb(25.882354%,25.882354%,25.882354%);fill-opacity:1;" d="M 13.558594 5.625 C 13.929688 5.625 14.261719 5.847656 14.398438 6.191406 C 14.539062 6.53125 14.453125 6.921875 14.191406 7.179688 L 10.28125 11.085938 L 14.191406 14.996094 C 14.425781 15.222656 14.519531 15.558594 14.433594 15.875 C 14.351562 16.1875 14.105469 16.4375 13.789062 16.519531 C 13.472656 16.601562 13.136719 16.507812 12.910156 16.273438 L 8.363281 11.726562 C 8.007812 11.375 8.007812 10.800781 8.363281 10.445312 L 12.910156 5.898438 C 13.082031 5.722656 13.316406 5.625 13.558594 5.625 Z M 13.558594 5.625 "/>
</g>
</svg>

<svg xmlns="http://www.w3.org/2000/svg" width="22pt" height="22pt" viewBox="0 0 22 22"><path d="M2.273 1.082c-.753 0-1.363.61-1.363 1.363V4.72h1.363V3.355c0-.503.407-.91.91-.91h1.364V1.082zm15.008 0v1.363h1.367c.504 0 .907.407.907.91V4.72h1.367V2.445c0-.754-.61-1.363-1.367-1.363zM.911 17.453v2.274c0 .757.609 1.367 1.362 1.367h2.274v-1.367H3.184a.905.905 0 0 1-.91-.907v-1.367zm18.644 0v1.367a.902.902 0 0 1-.907.907h-1.367v1.367h2.274c.758 0 1.367-.61 1.367-1.367v-2.274zm0 0" fill="#78909c"/><path d="M13.559 5.625a.905.905 0 1 1 .633 1.555l-3.91 3.906 3.91 3.91a.895.895 0 0 1 .242.879.904.904 0 0 1-1.524.398l-4.547-4.546a.903.903 0 0 1 0-1.282l4.547-4.547a.908.908 0 0 1 .649-.273zm0 0" fill-rule="evenodd" fill="#424242"/></svg>
